!!!!SEGMENT: pl-kk--kk-i-38--019_lasso-orlando-di--domine-non-est-exaltatum.krn
!!!cenid: 16xx:1269
!!!COM: Lasso, Orlando di
!!!COM-rismid: pe506
!!!CDT: ~1532-1594/06/14
!!!CNT: French-Flemish
!!!OTL: Domine non est exaltatum
!!!PDT:
!!!AGN: Sacred
!!!SMS-siglum: PL-Kk
!!!SMS-shelfmark: Kk.I.38
!!!SMS-shelfwork: 019 W
!!!SMS-variant:
!!!SMS-altvar:
!!!NIFC-rismid: 1001154415
!!!URL-scan: http://repozytorium.nifc.pl/skany/pl-kk-nut--i-38
!!!ONB-nifc: Lib. 3. Fol. 8. 2da parte (jeśli występuje), należy do utworu tytułowego
**kern	**text
*Iempty	*
*I"Baſso Ripieno.	*
*clefF4	*
*ok[b-b-]	*
*k[b-]	*
*g:	*
*M2/1	*
*met(C|)	*
=1-	=1-
!LO:TX:t=P:problem:po znakach przykluczowych:xstem cue G B- d	!
0r	.
=2-	=2-
!LO:TX:t=P:problem:kreska pseudotaktowa	!
1r	.
1.D	Do-
=3-	=3-
.	.
2GG/	-mi-
2GG/	-ne
*2\right	*
!LO:TX:t=P:problem:kreska pseudotaktowa	!
2D\	non
=4-	=4-
2.F\	est
4E/	.
4D/	.
4C/	.
4BB-/	.
!LO:TX:t=P:problem:kreska pseudotaktowa	!
4AA/	.
=5-	=5-
!LO:TX:t=P:problem:oddech/cezura na różnej wysokości:global	!
2BB-,</	.
1AA	e-
!LO:TX:t=P:problem:kreska pseudotaktowa	!
2C/	-xal-
=6-	=6-
4F\	-ta-
4G\	.
4A\	.
4G\	.
2B-\	.
!LO:TX:t=P:problem:kreska pseudotaktowa	!
2A\	-tum
=7-	=7-
2.G\	Cor
4F\	.
2E-X\	me-
2D\	.
=8-	=8-
!LO:TX:t=P:problem:kreska pseudotaktowa	!
1D,<	um
0r	.
=9-	=9-
.	.
2r	.
1A\	Do-
=10-	=10-
.	.
!LO:TX:t=P:problem:kreska pseudotaktowa	!
2D/	-mi-
2D,</	-ne
2G\	non
=11-	=11-
2.B-\	est
4A\	.
4G\	.
4F\	.
4E-X\	.
!LO:TX:t=P:problem:kreska pseudotaktowa	!
4D\	.
=12-	=12-
!LO:LB:g=original	!
2C/	e-
2C/	-xal-
2GG/	-ta-
1G\	.
=13-	=13-
.	.
!LO:TX:t=P:problem:kreska pseudotaktowa	!
2F\	-tum
2BB-,</	Cor
2.B-\	me-
=14-	=14-
.	.
4A\	.
4G\	.
4F\	.
4E-X/	.
4D/	.
2C/	.
=15-	=15-
!LO:TX:t=P:problem:kreska pseudotaktowa	!
1BB-	-um
2r	.
1F\	e-
=16-	=16-
.	.
2D\	-xal-
2En\	-ta-
2F#X\	-tum
=17-	=17-
1G	Cor
!LO:TX:t=P:problem:kreska pseudotaktowa	!
1D	me-
=18-	=18-
2GG,</	-um
2G\	ne-
2G\	-que
!LO:TX:t=P:problem:kreska pseudotaktowa	!
2Fny\	e-
=19-	=19-
2E-X\	-la-
2C/	-ti
2G,<\	sunt
2.G\	o-
=20-	=20-
.	.
4G\	-cu-
!LO:TX:t=P:problem:kreska pseudotaktowa	!
2C/	-li,
0r	.
=21-	=21-
.	.
!LO:TX:t=P:problem:kreska pseudotaktowa	!
1r	.
=22-	=22-
1D	ne-
2D/	-que
2C/	e-
=23-	=23-
2BB-/	-la-
2GG/	-ti
!LO:TX:t=P:problem:kreska pseudotaktowa	!
1D	sunt
=24-	=24-
!LO:LB:g=original	!
00r	.
=25-	=25-
.	.
=26-	=26-
2r	.
1AA	ne-
!LO:TX:t=P:problem:kreska pseudotaktowa	!
2AA/	-que
=27-	=27-
1AA	e-
2BB-/	-la-
2BB-/	-ti
=28-	=28-
!LO:TX:t=P:problem:kreska pseudotaktowa	!
1AA,<	sunt
2.D/	O-
4D/	-cu-
=29-	=29-
2C#X/	-li
2D/	me-
!LO:TX:t=P:problem:kreska pseudotaktowa	!
1GG	-i.
=30-	=30-
0r	.
=31-	=31-
!LO:TX:t=P:problem:kreska pseudotaktowa	!
1r	.
2r	.
1E-X\	ne-
=32-	=32-
.	.
2BB-/	-que
2Cny/	am-
2D\	-bu-
=33-	=33-
1E-X	-la-
!LO:TX:t=P:problem:kreska pseudotaktowa	!
1BB-	-vi
=34-	=34-
2r	.
2D\	in
(2E-X\	ma-
2F\)	.
=35-	=35-
!LO:TX:t=P:problem:kreska pseudotaktowa	!
0BB-	-gnis
=36-	=36-
0r	.
=37-	=37-
2r	.
1BB-	ne-
!LO:TX:t=P:problem:kreska pseudotaktowa	!
2FF/	-que
=38-	=38-
2GG/	am-
2AA/	-bu-
1BB-	-la-
=39-	=39-
2AA,</	-vi
!LO:TX:t=P:problem:kreska pseudotaktowa	!
2GG/	in
1D	ma-
=40-	=40-
!LO:TX:t=P:problem:kreska pseudotaktowa	!
1GG	-gnis
!LO:LB:g=original	!
2r	.
2G\	ne-
=41-	=41-
2G\	-que
2E-X\	in
2F\	mi-
!LO:TX:t=P:problem:kreska pseudotaktowa	!
2BB-/	-ra-
=42-	=42-
2.B-\	-bi-
4B-\	-li-
2A,<\	-b(us)
2D\	su-
=43-	=43-
!LO:TX:t=P:problem:kreska pseudotaktowa	!
1G	-per-
2C,</	-me
*	*ij
2C/	su-
=44-	=44-
1F	-per-
!LO:TX:t=P:problem:kreska pseudotaktowa	!
1BB-	-me
*	*Xij
=45-	=45-
2r	.
2C/	ne-
2C/	-que
2AA/	in
=46-	=46-
2BB-/	mi-
!LO:TX:t=P:problem:kreska pseudotaktowa	!
2GG/	-ra-
2.G\	-bi-
4A\	-li-
=47-	=47-
1B-	-b(us)
2E-X\	su-
!LO:TX:t=P:problem:kreska pseudotaktowa	!
2F\	-per-
=48-	=48-
2BB-,</	-me
1B-	Si
1G\	non
=49-	=49-
.	.
!LO:TX:t=P:problem:kreska pseudotaktowa	!
2E-X\	hu-
2.E-\	-mi-
4D/	-li-
=50-	=50-
!LO:TX:t=P:problem:kreska pseudotaktowa	!
1C	-ter
2BB-/	sen-
2BB-/	-ti-
=51-	=51-
2.F\	-e-
!LO:TX:a:t=P:problem:♮ above	!
4E\	.
1D	.
=52-	=52-
!LO:TX:t=P:problem:kreska pseudotaktowa	!
1AA	-bam
!LO:LB:g=original	!
2r	.
2D\	sed
=53-	=53-
2G\	ex-
!LO:TX:t=P:problem:kreska pseudotaktowa	!
2C/	-al-
4F\	-ta-
4E\	.
4D/	.
4C/	.
=54-	=54-
2BB-/	.
!LO:TX:t=P:problem:kreska pseudotaktowa	!
2BB-/	-vi
2.B-\	a-
4A\	-ni-
=55-	=55-
2G\	-ma
2G\	me-
!LO:TX:t=P:problem:kreska pseudotaktowa	!
1D	-am.
=56-	=56-
2r	.
2G\	sed
2E\	a-
2F\	-xal-
=57-	=57-
*lig	*
1C	-ta-
1D	.
*Xlig	*
=58-	=58-
!LO:TX:t=P:problem:kreska pseudotaktowa	!
1BB-,<	-vi
2.F\	a-
!LO:TX:a:t=P:problem:♮ above	!
4En\	-ni-
=59-	=59-
2D\	-mam
2.A\	me-
.	.
4G\	.
4F\	.
4E\	.
=60-	=60-
*lig	*
1D	.
1AA	.
*Xlig	*
=61-	=61-
0D;	-am.
=62||-	=62||-
*M2/1	*
*met(C|)	*
!LO:TX:a:B:t=2da\nparte	!
00r	.
=63-	=63-
.	.
=64-	=64-
00r	.
=65-	=65-
.	.
=66-	=66-
!LO:TX:t=P:problem:kreska pseudotaktowa	!
0r	.
=67-	=67-
1C	Si-
2GG,</	-cut
1G\	a-
=68-	=68-
.	.
!LO:TX:t=P:problem:kreska pseudotaktowa	!
2E-X\	-bla-
!LO:LB:g=original	!
2C/	-cta-
!LO:TX:a:t=P:problem:♭ above	!
2E-\	-tus
=69-	=69-
!LO:TX:t=P:problem:kreska pseudotaktowa	!
1D	eſt
0r	.
=70-	=70-
.	.
!LO:TX:t=P:problem:kreska pseudotaktowa	!
1r	.
=71-	=71-
*	*ij
1C	Si-
2G\	-cut
1GG/	a-
=72-	=72-
.	.
!LO:TX:t=P:problem:kreska pseudotaktowa	!
2AA/	-bla-
2BB-/	-cta-
2C/	-tus
=73-	=73-
2D,<\	eſt
*	*Xij
2A\	su-
!LO:TX:t=P:problem:kreska pseudotaktowa	!
1B-	-per
=74-	=74-
2A\	ma-
2B-\	-tre
2B-\	su
!LO:TX:t=P:problem:kreska pseudotaktowa	!
2BB-/	(am)
=75-	=75-
1r	.
2r	.
!LO:TX:t=P:problem:kreska pseudotaktowa	!
2D/	Si-
=76-	=76-
2GG,</	-cut
1G	a-
2F#X\	-bla-
=77-	=77-
1.G	-cta-
2G\	-t(us)
=78-	=78-
!LO:TX:t=P:problem:kreska pseudotaktowa	!
1A	est
1D	su-
=79-	=79-
1AA,<	-per
1C	ma-
=80-	=80-
!LO:TX:t=P:problem:kreska pseudotaktowa	!
1GG	-tre
2.BB-/	su-
4C/	.
=81-	=81-
1D	.
!LO:TX:t=P:problem:kreska pseudotaktowa	!
1GG	-(am)
=82-	=82-
0r	.
=83-	=83-
!LO:TX:t=P:problem:kreska pseudotaktowa	!
1r	.
!LO:LB:g=original	!
2r	.
1G\	i-
=84-	=84-
.	.
2GG/	-ta
2.E-X\	re-
4E-\	-tri-
=85-	=85-
2E-\	-bu-
2D/	-ti-
2C,</	-o
!LO:TX:t=P:problem:kreska pseudotaktowa	!
2GG/	in
=86-	=86-
2.C/	a-
4C/	-ni-
2C,</	-ma
2C/	me-
=87-	=87-
!LO:TX:t=P:problem:kreska pseudotaktowa	!
1GG	-a;
1r	.
=88-	=88-
2r	.
1D	i-
!LO:TX:t=P:problem:kreska pseudotaktowa	!
2D/	-ta,
=89-	=89-
2.Fny\	re-
4F\	-tri-
2B-\	-bu-
2A\	-ti-
=90-	=90-
!LO:TX:t=P:problem:kreska pseudotaktowa	!
1G,<	-o
1C	in
=91-	=91-
2C/	a-
1E-X	-ni-
!LO:TX:t=P:problem:kreska pseudotaktowa	!
2BB-/	-ma
=92-	=92-
2C/	me-
2D\	.
2GG,</	-a
2G\	in
=93-	=93-
2.F\	a-
4F\	-ni-
!LO:TX:t=P:problem:kreska pseudotaktowa	!
1C	-ma
=94-	=94-
2.D/	me-
4C/	.
1BB-	.
=95-	=95-
!LO:TX:t=P:problem:kreska pseudotaktowa	!
1AA,<	-a
!LO:TX:t=P:problem:kreska pseudotaktowa	!
!LO:LB:g=original	!
0r	.
=96-	=96-
.	.
1.D	Spe-
=97-	=97-
.	.
2C#X/	-ret
2.D/	I-
4D/	-sra-
=98-	=98-
!LO:TX:t=P:problem:kreska pseudotaktowa	!
1AA	-el
00r	.
=99-	=99-
.	.
=100-	=100-
.	.
2r	.
*	*ij
1Cny/	Spe-
=101-	=101-
.	.
!LO:TX:t=P:problem:kreska pseudotaktowa	!
2BBn/	-ret
2.C/	I-
4C/	-sra-
=102-	=102-
2GG,</	-el
*	*Xij
2G\	in
2Eny\	Do-
2F\	-mi-
=103-	=103-
!LO:TX:t=P:problem:kreska pseudotaktowa	!
1C	-no
1r	.
=104-	=104-
2r	.
2F\	ex
2C/	hoc
!LO:TX:t=P:problem:kreska pseudotaktowa	!
2F\	nunc
=105-	=105-
2BB-/	et
2GG/	us-
2C,</	-(que)
2D\	in
=106-	=106-
2BB-/	sae-
2C/	-cu-
!LO:TX:t=P:problem:kreska pseudotaktowa	!
1C	-l(um)
=107-	=107-
00r	.
=108-	=108-
.	.
=109-	=109-
2r	.
2GG/	ex
2C/	hoc
!LO:TX:t=P:problem:kreska pseudotaktowa	!
2BB-/	nunc
=110-	=110-
2FF/	et
2C/	us-
2G\	-que
2GG/	in
=111-	=111-
2D/	sae-
!LO:TX:t=P:problem:kreska pseudotaktowa	!
2D/	-cu-
2AA,</	-l(um)
2D\	et
=112-	=112-
2G\	us-
2GG/	-(que)
4GG/	in
4AA/	.
4BB-/	.
4GG/	.
=113-	=113-
2D/	sae-
2D/	-cu-
!LO:N:vis=0	!
1GG;	-l(um)
=-	=-
*-	*-
!!!RDF**kern: < = below
!!!RDF**kern: > = above
!!!ENC: Marta Chmielewska
!!!END: 2021-07-30
!!!ENC: Berenika Jozajtis
!!!END: 2021-07-03
